public/love.svg

<svg fill="none" height="54" viewBox="0 0 61 54" width="61" xmlns="http://www.w3.org/2000/svg" xmlns:xlink="http://www.w3.org/1999/xlink"><linearGradient id="a" gradientUnits="userSpaceOnUse" x1="-4.05409" x2="71.6439" y1="11.7888" y2="42.7874"><stop offset=".00800497" stop-color="#38dbff"/><stop offset="1" stop-color="#243aff"/></linearGradient><path d="m60.9518 15.2325c0 4.3202-1.799 8.2202-4.6879 10.991l-25.7639 27.5628-25.76386-27.5628c-2.88892-2.7708-4.6879222-6.6708-4.6879222-10.991 0-8.41729 6.8152122-15.2325 15.2192822-15.2325 8.4173 0 15.2325 6.81521 15.2325 15.2325 0 .105 0 .2101-.0131.3151h.0262c-.0131-.105-.0131-.2101-.0131-.3151 0-8.41729 6.8152-15.2325 15.2325-15.2325 8.4041 0 15.2193 6.81521 15.2193 15.2325z" fill="url(#a)"/></svg>

<svg width="61" height="54" viewBox="0 0 61 54" fill="none" xmlns="http://www.w3.org/2000/svg">
<path d="M60.9518 15.2325C60.9518 19.5527 59.1528 23.4527 56.2639 26.2235L30.5 53.7863L4.73614 26.2235C1.84722 23.4527 0.0482178 19.5527 0.0482178 15.2325C0.0482178 6.81521 6.86343 0 15.2675 0C23.6848 0 30.5 6.81521 30.5 15.2325C30.5 15.3375 30.5 15.4426 30.4869 15.5476H30.5131C30.5 15.4426 30.5 15.3375 30.5 15.2325C30.5 6.81521 37.3152 0 45.7325 0C54.1366 0 60.9518 6.81521 60.9518 15.2325Z" fill="url(#paint0_linear_106_257)"/>
<defs>
<linearGradient id="paint0_linear_106_257" x1="-4.05409" y1="11.7888" x2="71.6439" y2="42.7874" gradientUnits="userSpaceOnUse">
<stop offset="0.00800497" stop-color="#38DBFF"/>
<stop offset="1" stop-color="#243AFF"/>
</linearGradient>
</defs>
</svg>
